icons/numix/16x16/status/screencloud-idle.svg

<?xml version="1.0" encoding="UTF-8" standalone="no"?>
<svg
   xmlns:dc="http://purl.org/dc/elements/1.1/"
   xmlns:cc="http://creativecommons.org/ns#"
   xmlns:rdf="http://www.w3.org/1999/02/22-rdf-syntax-ns#"
   xmlns:svg="http://www.w3.org/2000/svg"
   xmlns="http://www.w3.org/2000/svg"
   xmlns:sodipodi="http://sodipodi.sourceforge.net/DTD/sodipodi-0.dtd"
   xmlns:inkscape="http://www.inkscape.org/namespaces/inkscape"
   width="16"
   height="16"
   viewBox="0 0 16 16"
   id="svg3003"
   version="1.1"
   inkscape:version="0.48.5 r10040"
   sodipodi:docname="screencloud-idle.svg">
  <metadata
     id="metadata3041">
    <rdf:RDF>
      <cc:Work
         rdf:about="">
        <dc:format>image/svg+xml</dc:format>
        <dc:type
           rdf:resource="http://purl.org/dc/dcmitype/StillImage" />
      </cc:Work>
    </rdf:RDF>
  </metadata>
  <sodipodi:namedview
     pagecolor="#ffffff"
     bordercolor="#666666"
     borderopacity="1"
     objecttolerance="10"
     gridtolerance="10"
     guidetolerance="10"
     inkscape:pageopacity="0"
     inkscape:pageshadow="2"
     inkscape:window-width="640"
     inkscape:window-height="480"
     id="namedview3039"
     showgrid="false"
     inkscape:zoom="14.75"
     inkscape:cx="8"
     inkscape:cy="8"
     inkscape:window-x="0"
     inkscape:window-y="0"
     inkscape:window-maximized="0"
     inkscape:current-layer="svg3003" />
  <defs
     id="defs3005">
    <filter
       id="0"
       filterUnits="objectBoundingBox"
       x="0"
       y="0"
       width="16"
       height="16">
      <feColorMatrix
         type="matrix"
         in="SourceGraphic"
         values="0 0 0 0 1 0 0 0 0 1 0 0 0 0 1 0 0 0 1 0"
         id="feColorMatrix3008" />
    </filter>
    <mask
       id="1">
      <g
         filter="url(#0)"
         id="g3011">
        <rect
           width="16"
           height="16"
           fill-opacity="0.302"
           id="rect3013" />
      </g>
    </mask>
    <clipPath
       id="2">
      <rect
         width="16"
         height="16"
         id="rect3016" />
    </clipPath>
    <g
       id="3"
       clip-path="url(#2)">
      <path
         d="M 5.886719 6.246094 C 3.734375 6.246094 1.988281 7.992188 1.988281 10.144531 C 1.988281 10.230469 1.992188 10.320312 2 10.40625 C 1.242188 10.773438 0.726562 11.503906 0.726562 12.351562 C 0.726562 13.566406 1.78125 14.546875 3.09375 14.546875 L 12.90625 14.546875 C 14.214844 14.546875 15.273438 13.566406 15.273438 12.351562 C 15.273438 11.449219 14.6875 10.679688 13.851562 10.339844 C 13.871094 10.203125 13.882812 10.066406 13.882812 9.921875 C 13.882812 8.378906 12.632812 7.128906 11.089844 7.128906 C 10.316406 7.128906 9.617188 7.445312 9.109375 7.953125 C 8.410156 6.921875 7.226562 6.246094 5.886719 6.246094 Z M 4.273438 7.433594 C 4.695312 7.433594 5.035156 7.761719 5.035156 8.160156 C 5.035156 8.5625 4.695312 8.890625 4.273438 8.890625 C 3.851562 8.890625 3.511719 8.5625 3.511719 8.160156 C 3.511719 7.761719 3.851562 7.433594 4.273438 7.433594 Z M 8 8.515625 C 9.378906 8.515625 10.507812 9.648438 10.507812 11.027344 C 10.507812 12.40625 9.378906 13.539062 8 13.539062 C 6.621094 13.539062 5.492188 12.40625 5.492188 11.027344 C 5.492188 9.648438 6.621094 8.515625 8 8.515625 Z M 8 9.59375 C 7.203125 9.59375 6.570312 10.230469 6.570312 11.027344 C 6.570312 11.824219 7.203125 12.460938 8 12.460938 C 8.796875 12.460938 9.429688 11.824219 9.429688 11.027344 C 9.429688 10.230469 8.796875 9.59375 8 9.59375 Z "
         id="path3019" />
      <path
         d="M 12.644531 7.078125 L 12.351562 6.804688 L 11.960938 6.886719 L 12.132812 6.523438 L 11.929688 6.175781 L 12.328125 6.226562 L 12.597656 5.929688 L 12.671875 6.324219 L 13.039062 6.488281 L 12.6875 6.679688 Z "
         id="path3021" />
      <path
         d="M 12.96875 6.34375 L 12.984375 6.15625 L 12.835938 6.039062 L 13.019531 5.996094 L 13.089844 5.820312 L 13.1875 5.980469 L 13.375 5.992188 L 13.25 6.132812 L 13.300781 6.316406 L 13.125 6.242188 Z "
         id="path3023" />
      <path
         d="M 13.144531 7.4375 L 13.105469 7.152344 L 12.851562 7.019531 L 13.113281 6.898438 L 13.160156 6.613281 L 13.355469 6.824219 L 13.640625 6.78125 L 13.5 7.03125 L 13.628906 7.289062 L 13.347656 7.234375 Z "
         id="path3025" />
    </g>
  </defs>
  <path
     style="fill:#ececec;fill-opacity:1"
     inkscape:connector-curvature="0"
     id="path3031"
     d="m 5.886719,5.519531 c -2.152344,0 -3.898438,1.746094 -3.898438,3.898438 0,0.085937 0.00391,0.175781 0.011719,0.261719 -0.757812,0.363281 -1.273438,1.097656 -1.273438,1.945312 0,1.214844 1.054688,2.191406 2.367188,2.191406 l 9.8125,0 c 1.308594,0 2.367188,-0.976562 2.367188,-2.191406 0,-0.902344 -0.585938,-1.675781 -1.421876,-2.011719 0.01953,-0.136719 0.03125,-0.277343 0.03125,-0.417969 0,-1.542968 -1.25,-2.792968 -2.792968,-2.792968 -0.773438,0 -1.472656,0.316406 -1.980469,0.824218 C 8.410156,6.195312 7.226562,5.519531 5.886719,5.519531 z m -1.613281,1.1875 c 0.421874,0 0.761718,0.324219 0.761718,0.726563 0,0.402344 -0.339844,0.730468 -0.761718,0.730468 -0.421876,0 -0.761719,-0.328124 -0.761719,-0.730468 0,-0.402344 0.339843,-0.726563 0.761719,-0.726563 z M 8,7.789062 c 1.378906,0 2.507812,1.128907 2.507812,2.511719 0,1.378907 -1.128906,2.511719 -2.507812,2.511719 -1.378906,0 -2.507812,-1.132812 -2.507812,-2.511719 C 5.492188,8.917969 6.621094,7.789062 8,7.789062 z m 0,1.078126 c -0.796875,0 -1.429688,0.632812 -1.429688,1.433593 0,0.796875 0.632813,1.433594 1.429688,1.433594 0.796875,0 1.429688,-0.636719 1.429688,-1.433594 C 9.429688,9.5 8.796875,8.867188 8,8.867188 z" />
  <path
     style="fill:#ececec;fill-opacity:1"
     inkscape:connector-curvature="0"
     id="path3033"
     d="M 12.644531,6.351562 12.351562,6.074219 11.960938,6.160156 12.132812,5.796875 11.929688,5.449219 12.328125,5.5 12.597656,5.199219 12.671875,5.597656 13.039062,5.757812 12.6875,5.953125 z" />
  <path
     style="fill:#ececec;fill-opacity:1"
     inkscape:connector-curvature="0"
     id="path3035"
     d="m 12.96875,5.617188 0.01563,-0.1875 -0.148437,-0.121094 0.183593,-0.042969 0.07031,-0.175781 0.09766,0.164062 0.1875,0.00781 L 13.25,5.40625 13.300781,5.589844 13.125,5.515625 z" />
  <path
     style="fill:#ececec;fill-opacity:1"
     inkscape:connector-curvature="0"
     id="path3037"
     d="M 13.144531,6.710938 13.105469,6.425781 12.851562,6.292969 13.113281,6.171875 13.160156,5.886719 13.355469,6.097656 13.640625,6.054688 13.5,6.304688 13.628906,6.5625 13.347656,6.507812 z" />
</svg>

<svg xmlns="http://www.w3.org/2000/svg" xmlns:xlink="http://www.w3.org/1999/xlink" width="16" height="16" viewBox="0 0 16 16">
 <defs>
  <filter id="0" filterUnits="objectBoundingBox" x="0" y="0" width="16" height="16">
   <feColorMatrix type="matrix" in="SourceGraphic" values="0 0 0 0 1 0 0 0 0 1 0 0 0 0 1 0 0 0 1 0"/>
  </filter>
  <mask id="1">
   <g filter="url(#0)">
    <rect width="16" height="16" fill-opacity="0.302"/>
   </g>
  </mask>
  <clipPath id="2">
   <rect width="16" height="16"/>
  </clipPath>
  <g id="3" clip-path="url(#2)">
   <path d="M 5.886719 6.246094 C 3.734375 6.246094 1.988281 7.992188 1.988281 10.144531 C 1.988281 10.230469 1.992188 10.320312 2 10.40625 C 1.242188 10.773438 0.726562 11.503906 0.726562 12.351562 C 0.726562 13.566406 1.78125 14.546875 3.09375 14.546875 L 12.90625 14.546875 C 14.214844 14.546875 15.273438 13.566406 15.273438 12.351562 C 15.273438 11.449219 14.6875 10.679688 13.851562 10.339844 C 13.871094 10.203125 13.882812 10.066406 13.882812 9.921875 C 13.882812 8.378906 12.632812 7.128906 11.089844 7.128906 C 10.316406 7.128906 9.617188 7.445312 9.109375 7.953125 C 8.410156 6.921875 7.226562 6.246094 5.886719 6.246094 Z M 4.273438 7.433594 C 4.695312 7.433594 5.035156 7.761719 5.035156 8.160156 C 5.035156 8.5625 4.695312 8.890625 4.273438 8.890625 C 3.851562 8.890625 3.511719 8.5625 3.511719 8.160156 C 3.511719 7.761719 3.851562 7.433594 4.273438 7.433594 Z M 8 8.515625 C 9.378906 8.515625 10.507812 9.648438 10.507812 11.027344 C 10.507812 12.40625 9.378906 13.539062 8 13.539062 C 6.621094 13.539062 5.492188 12.40625 5.492188 11.027344 C 5.492188 9.648438 6.621094 8.515625 8 8.515625 Z M 8 9.59375 C 7.203125 9.59375 6.570312 10.230469 6.570312 11.027344 C 6.570312 11.824219 7.203125 12.460938 8 12.460938 C 8.796875 12.460938 9.429688 11.824219 9.429688 11.027344 C 9.429688 10.230469 8.796875 9.59375 8 9.59375 Z "/>
   <path d="M 12.644531 7.078125 L 12.351562 6.804688 L 11.960938 6.886719 L 12.132812 6.523438 L 11.929688 6.175781 L 12.328125 6.226562 L 12.597656 5.929688 L 12.671875 6.324219 L 13.039062 6.488281 L 12.6875 6.679688 Z "/>
   <path d="M 12.96875 6.34375 L 12.984375 6.15625 L 12.835938 6.039062 L 13.019531 5.996094 L 13.089844 5.820312 L 13.1875 5.980469 L 13.375 5.992188 L 13.25 6.132812 L 13.300781 6.316406 L 13.125 6.242188 Z "/>
   <path d="M 13.144531 7.4375 L 13.105469 7.152344 L 12.851562 7.019531 L 13.113281 6.898438 L 13.160156 6.613281 L 13.355469 6.824219 L 13.640625 6.78125 L 13.5 7.03125 L 13.628906 7.289062 L 13.347656 7.234375 Z "/>
  </g>
 </defs>
 <g>
  <use xlink:href="#3" mask="url(#1)"/>
  <path d="M 5.886719 5.519531 C 3.734375 5.519531 1.988281 7.265625 1.988281 9.417969 C 1.988281 9.503906 1.992188 9.59375 2 9.679688 C 1.242188 10.042969 0.726562 10.777344 0.726562 11.625 C 0.726562 12.839844 1.78125 13.816406 3.09375 13.816406 L 12.90625 13.816406 C 14.214844 13.816406 15.273438 12.839844 15.273438 11.625 C 15.273438 10.722656 14.6875 9.949219 13.851562 9.613281 C 13.871094 9.476562 13.882812 9.335938 13.882812 9.195312 C 13.882812 7.652344 12.632812 6.402344 11.089844 6.402344 C 10.316406 6.402344 9.617188 6.71875 9.109375 7.226562 C 8.410156 6.195312 7.226562 5.519531 5.886719 5.519531 Z M 4.273438 6.707031 C 4.695312 6.707031 5.035156 7.03125 5.035156 7.433594 C 5.035156 7.835938 4.695312 8.164062 4.273438 8.164062 C 3.851562 8.164062 3.511719 7.835938 3.511719 7.433594 C 3.511719 7.03125 3.851562 6.707031 4.273438 6.707031 Z M 8 7.789062 C 9.378906 7.789062 10.507812 8.917969 10.507812 10.300781 C 10.507812 11.679688 9.378906 12.8125 8 12.8125 C 6.621094 12.8125 5.492188 11.679688 5.492188 10.300781 C 5.492188 8.917969 6.621094 7.789062 8 7.789062 Z M 8 8.867188 C 7.203125 8.867188 6.570312 9.5 6.570312 10.300781 C 6.570312 11.097656 7.203125 11.734375 8 11.734375 C 8.796875 11.734375 9.429688 11.097656 9.429688 10.300781 C 9.429688 9.5 8.796875 8.867188 8 8.867188 Z " fill="#dcdcdc"/>
  <path d="M 12.644531 6.351562 L 12.351562 6.074219 L 11.960938 6.160156 L 12.132812 5.796875 L 11.929688 5.449219 L 12.328125 5.5 L 12.597656 5.199219 L 12.671875 5.597656 L 13.039062 5.757812 L 12.6875 5.953125 Z " fill="#dcdcdc"/>
  <path d="M 12.96875 5.617188 L 12.984375 5.429688 L 12.835938 5.308594 L 13.019531 5.265625 L 13.089844 5.089844 L 13.1875 5.253906 L 13.375 5.261719 L 13.25 5.40625 L 13.300781 5.589844 L 13.125 5.515625 Z " fill="#dcdcdc"/>
  <path d="M 13.144531 6.710938 L 13.105469 6.425781 L 12.851562 6.292969 L 13.113281 6.171875 L 13.160156 5.886719 L 13.355469 6.097656 L 13.640625 6.054688 L 13.5 6.304688 L 13.628906 6.5625 L 13.347656 6.507812 Z " fill="#dcdcdc"/>
 </g>
</svg>
